X:278
T: MEINEN HEILAND IM HERZEN
N: B0756
O: Europa, Mitteleuropa, Deutschland
R: Tageszeiten - Lied, Abend, religioes
M: 4/4
L: 1/8
K: A
EE | c4A2d2 | c3BA2
e2 | B3AG2A2 | B4z2
F2 | d4B2c2 | d3cB2
B2 | e4d2d2 | c4z2
B2 | c4c2c2 | c2e2ed
cB | A4G2G2 | A4z2

